symbolic/64x64/mimetypes/application-x-dwg.svg

<svg xmlns="http://www.w3.org/2000/svg" width="64" height="64" version="1.1">
 <path style="opacity:0.2" d="M 12.75,5 C 11.2265,5 10,6.2488 10,7.8 v 50.4 c 0,1.55008 1.2265,2.8 2.75,2.8 h 38.5 C 52.7724,61 54,59.75008 54,58.2 V 23 L 40,19 36,5 Z"/>
 <path style="fill:#1273b2" d="M 12.75,4 C 11.2265,4 10,5.2488 10,6.8 v 50.4 c 0,1.55008 1.2265,2.8 2.75,2.8 h 38.5 C 52.7724,60 54,58.75008 54,57.2 V 22 L 40,18 36,4 Z"/>
 <path style="opacity:0.2" d="M 54,23 36,5 V 20.1875 C 36,21.74675 37.2555,23 38.8125,23 Z"/>
 <path style="fill:#4e92be" d="M 54,22 36,4 V 19.1875 C 36,20.74675 37.2555,22 38.8125,22 Z"/>
 <path style="opacity:0.2;fill:#ffffff" d="M 12.75 4 C 11.2265 4 10 5.2495812 10 6.8007812 L 10 7.8007812 C 10 6.2495813 11.2265 5 12.75 5 L 36 5 L 36 4 L 12.75 4 z"/>
 <path style="opacity:0.2" d="m 24,5 v 30 h -9 v 9 h -5 v 3 h 5 v 9 h 9 v 5 h 3 v -5 h 9 V 47 H 54 V 44 H 36 V 35 H 27 V 5 Z M 18,53 V 38 h 15 v 15 m -9,-9 v 3 h 3 v -3 z"/>
 <path style="fill:#ffffff" d="m 24,4 v 30 h -9 v 9 h -5 v 3 h 5 v 9 h 9 v 5 h 3 v -5 h 9 V 46 H 54 V 43 H 36 V 34 H 27 V 4 Z M 18,52 V 37 h 15 v 15 m -9,-9 v 3 h 3 v -3 z"/>
</svg>

<svg xmlns="http://www.w3.org/2000/svg" width="64" height="64"><path style="opacity:.2" d="M12.75 5C11.226 5 10 6.249 10 7.8v50.4c0 1.55 1.226 2.8 2.75 2.8h38.5c1.522 0 2.75-1.25 2.75-2.8V23l-14-4-4-14z"/><path style="fill:#1273b2" d="M12.75 4C11.226 4 10 5.249 10 6.8v50.4c0 1.55 1.226 2.8 2.75 2.8h38.5c1.522 0 2.75-1.25 2.75-2.8V22l-14-4-4-14z"/><path style="opacity:.2" d="M54 23 36 5v15.188A2.806 2.806 0 0 0 38.813 23z"/><path style="fill:#4e92be" d="M54 22 36 4v15.188A2.806 2.806 0 0 0 38.813 22z"/><path style="opacity:.2;fill:#fff" d="M12.75 4C11.226 4 10 5.25 10 6.8v1C10 6.25 11.226 5 12.75 5H36V4H12.75z"/><path style="opacity:.2" d="M24 5v30h-9v9h-5v3h5v9h9v5h3v-5h9v-9h18v-3H36v-9h-9V5zm-6 48V38h15v15m-9-9v3h3v-3z"/><path style="fill:#fff" d="M24 4v30h-9v9h-5v3h5v9h9v5h3v-5h9v-9h18v-3H36v-9h-9V4zm-6 48V37h15v15m-9-9v3h3v-3z"/></svg>
